X: 265a
T: Da Slockit Light zweite Stimme
R: reel
M: 4/4
C:Tom Anderson
L: 1/8
K:Dmaj
FE|A,3D F2A2|dcAG F2D2|G2B2F2A2|GFED A,4|
A,3D F2A2|dcAG F2D2|G,4 A,3C|[D6A,6]:|
g2|d2A2 c3E|G4 FEDC|D4 ^G3E|C2A,2B,2C2|
D4A4|G6GF|G2B,2A,B,A,C|DA,B,G, A,4|
D4 C4|B,6GF|G2B2F2A2|GFED A,4|
A,3D F2A2|^A4F2D2|G,4 A,3C|[D4A,4][D2A,2]|]


